X:646
%%etbk:tnset id:389,pos:1,rep:3x,ant:
%%etbk:wsite https://thesession.org/tunes/406
%%etbk:pldat 2015-11-25T16:59,2015-08-18T17:06,2015-04-06T16:06,2015-03-31T18:11
T: Lad O'Beirne's
Z: Piano Box Version by Martin Fleischmann
H: Created 2015-03-27 /  Last Modified 2015-08-18
R: reel
M: 4/4
L: 1/8
K: Gmaj
|: "G"D!3!GGG DG!5!BG | "D"!4!A2BG !4!AG!2!EG |"G" !1!D!3!GGF !1!G2Bd | "C"egdg edge |
"G"dBBB dBGB | "C"cEEE GEDE | "G"DEG!4!A !3!BABc | "D"dBAc "G"BGG2 :|
|: "G"d2Be d2Bd | "C"egdg edge | "G"dBBB dBGB | "C"cEEE GFED2 |
"G"Bdd^c d2ef | g2fa gedB | DEGA BABc | dBAc BGG2 :|


